flaticon/business/cart-11.svg

<svg xmlns="http://www.w3.org/2000/svg" width="32" height="32" viewBox="0 0 24 24">
    <path d="M 24 16.679688 L 24 5.695312 L 4.472656 5.695312 L 4.472656 2.847656 C 4.472656 2.621094 4.292969 2.441406 4.066406 2.441406 L 3.195312 2.441406 C 3.015625 1.742188 2.382812 1.21875 1.628906 1.21875 C 0.730469 1.21875 0 1.949219 0 2.847656 C 0 3.746094 0.730469 4.472656 1.628906 4.472656 C 2.382812 4.472656 3.015625 3.953125 3.195312 3.253906 L 3.660156 3.253906 L 3.660156 18.710938 C 3.660156 18.9375 3.84375 19.117188 4.066406 19.117188 L 6.929688 19.117188 C 6.429688 19.488281 6.101562 20.078125 6.101562 20.746094 C 6.101562 21.867188 7.015625 22.78125 8.136719 22.78125 C 9.257812 22.78125 10.167969 21.867188 10.167969 20.746094 C 10.167969 20.078125 9.839844 19.488281 9.34375 19.117188 L 16.691406 19.117188 C 16.191406 19.488281 15.863281 20.078125 15.863281 20.746094 C 15.863281 21.867188 16.777344 22.78125 17.898438 22.78125 C 19.019531 22.78125 19.933594 21.867188 19.933594 20.746094 C 19.933594 20.078125 19.605469 19.488281 19.105469 19.117188 L 21.558594 19.117188 C 21.785156 19.117188 21.964844 18.9375 21.964844 18.710938 C 21.964844 18.488281 21.785156 18.304688 21.558594 18.304688 L 4.472656 18.304688 L 4.472656 16.679688 Z M 1.628906 3.660156 C 1.179688 3.660156 0.8125 3.296875 0.8125 2.847656 C 0.8125 2.398438 1.179688 2.035156 1.628906 2.035156 C 1.925781 2.035156 2.1875 2.199219 2.328125 2.441406 L 2.035156 2.441406 C 1.808594 2.441406 1.628906 2.621094 1.628906 2.847656 C 1.628906 3.074219 1.808594 3.253906 2.035156 3.253906 L 2.328125 3.253906 C 2.1875 3.496094 1.925781 3.660156 1.628906 3.660156 Z M 8.136719 21.964844 C 7.460938 21.964844 6.914062 21.417969 6.914062 20.746094 C 6.914062 20.074219 7.460938 19.527344 8.136719 19.527344 C 8.808594 19.527344 9.355469 20.074219 9.355469 20.746094 C 9.355469 21.417969 8.808594 21.964844 8.136719 21.964844 Z M 17.898438 21.964844 C 17.226562 21.964844 16.679688 21.417969 16.679688 20.746094 C 16.679688 20.074219 17.226562 19.527344 17.898438 19.527344 C 18.570312 19.527344 19.117188 20.074219 19.117188 20.746094 C 19.117188 21.417969 18.570312 21.964844 17.898438 21.964844 Z M 23.1875 6.507812 L 23.1875 15.863281 L 4.472656 15.863281 L 4.472656 6.507812 Z M 23.1875 6.507812"/>
    <path d="M7.320312 15.050781C7.546875 15.050781 7.730469 14.867188 7.730469 14.644531L7.730469 13.421875C7.730469 13.199219 7.546875 13.015625 7.320312 13.015625 7.097656 13.015625 6.914062 13.199219 6.914062 13.421875L6.914062 14.644531C6.914062 14.867188 7.097656 15.050781 7.320312 15.050781zM7.320312 9.355469C7.546875 9.355469 7.730469 9.175781 7.730469 8.949219L7.730469 7.730469C7.730469 7.503906 7.546875 7.320312 7.320312 7.320312 7.097656 7.320312 6.914062 7.503906 6.914062 7.730469L6.914062 8.949219C6.914062 9.175781 7.097656 9.355469 7.320312 9.355469zM7.320312 12.203125C7.546875 12.203125 7.730469 12.023438 7.730469 11.796875L7.730469 10.578125C7.730469 10.351562 7.546875 10.167969 7.320312 10.167969 7.097656 10.167969 6.914062 10.351562 6.914062 10.578125L6.914062 11.796875C6.914062 12.023438 7.097656 12.203125 7.320312 12.203125zM10.578125 15.050781C10.800781 15.050781 10.984375 14.867188 10.984375 14.644531L10.984375 13.421875C10.984375 13.199219 10.800781 13.015625 10.578125 13.015625 10.351562 13.015625 10.167969 13.199219 10.167969 13.421875L10.167969 14.644531C10.167969 14.867188 10.351562 15.050781 10.578125 15.050781zM10.578125 9.355469C10.800781 9.355469 10.984375 9.175781 10.984375 8.949219L10.984375 7.730469C10.984375 7.503906 10.800781 7.320312 10.578125 7.320312 10.351562 7.320312 10.167969 7.503906 10.167969 7.730469L10.167969 8.949219C10.167969 9.175781 10.351562 9.355469 10.578125 9.355469zM10.578125 12.203125C10.800781 12.203125 10.984375 12.023438 10.984375 11.796875L10.984375 10.578125C10.984375 10.351562 10.800781 10.167969 10.578125 10.167969 10.351562 10.167969 10.167969 10.351562 10.167969 10.578125L10.167969 11.796875C10.167969 12.023438 10.351562 12.203125 10.578125 12.203125zM13.832031 15.050781C14.054688 15.050781 14.238281 14.867188 14.238281 14.644531L14.238281 13.421875C14.238281 13.199219 14.054688 13.015625 13.832031 13.015625 13.605469 13.015625 13.421875 13.199219 13.421875 13.421875L13.421875 14.644531C13.421875 14.867188 13.605469 15.050781 13.832031 15.050781zM13.832031 9.355469C14.054688 9.355469 14.238281 9.175781 14.238281 8.949219L14.238281 7.730469C14.238281 7.503906 14.054688 7.320312 13.832031 7.320312 13.605469 7.320312 13.421875 7.503906 13.421875 7.730469L13.421875 8.949219C13.421875 9.175781 13.605469 9.355469 13.832031 9.355469zM13.832031 12.203125C14.054688 12.203125 14.238281 12.023438 14.238281 11.796875L14.238281 10.578125C14.238281 10.351562 14.054688 10.167969 13.832031 10.167969 13.605469 10.167969 13.421875 10.351562 13.421875 10.578125L13.421875 11.796875C13.421875 12.023438 13.605469 12.203125 13.832031 12.203125zM17.085938 15.050781C17.308594 15.050781 17.492188 14.867188 17.492188 14.644531L17.492188 13.421875C17.492188 13.199219 17.308594 13.015625 17.085938 13.015625 16.859375 13.015625 16.679688 13.199219 16.679688 13.421875L16.679688 14.644531C16.679688 14.867188 16.859375 15.050781 17.085938 15.050781zM17.085938 9.355469C17.308594 9.355469 17.492188 9.175781 17.492188 8.949219L17.492188 7.730469C17.492188 7.503906 17.308594 7.320312 17.085938 7.320312 16.859375 7.320312 16.679688 7.503906 16.679688 7.730469L16.679688 8.949219C16.679688 9.175781 16.859375 9.355469 17.085938 9.355469zM17.085938 12.203125C17.308594 12.203125 17.492188 12.023438 17.492188 11.796875L17.492188 10.578125C17.492188 10.351562 17.308594 10.167969 17.085938 10.167969 16.859375 10.167969 16.679688 10.351562 16.679688 10.578125L16.679688 11.796875C16.679688 12.023438 16.859375 12.203125 17.085938 12.203125zM20.339844 15.050781C20.5625 15.050781 20.746094 14.867188 20.746094 14.644531L20.746094 13.421875C20.746094 13.199219 20.5625 13.015625 20.339844 13.015625 20.113281 13.015625 19.933594 13.199219 19.933594 13.421875L19.933594 14.644531C19.933594 14.867188 20.113281 15.050781 20.339844 15.050781zM20.339844 9.355469C20.5625 9.355469 20.746094 9.175781 20.746094 8.949219L20.746094 7.730469C20.746094 7.503906 20.5625 7.320312 20.339844 7.320312 20.113281 7.320312 19.933594 7.503906 19.933594 7.730469L19.933594 8.949219C19.933594 9.175781 20.113281 9.355469 20.339844 9.355469zM20.339844 12.203125C20.5625 12.203125 20.746094 12.023438 20.746094 11.796875L20.746094 10.578125C20.746094 10.351562 20.5625 10.167969 20.339844 10.167969 20.113281 10.167969 19.933594 10.351562 19.933594 10.578125L19.933594 11.796875C19.933594 12.023438 20.113281 12.203125 20.339844 12.203125zM20.339844 12.203125"/>
</svg>

<svg xmlns="http://www.w3.org/2000/svg" width="32" height="32" viewBox="0 0 24 24">
    <path d="M24 16.68V5.695H4.473V2.848a.403.403 0 0 0-.407-.407h-.87A1.625 1.625 0 0 0 1.628 1.22a1.627 1.627 0 0 0 0 3.254c.754 0 1.387-.52 1.566-1.22h.465v15.458c0 .227.184.406.406.406H6.93c-.5.371-.828.961-.828 1.63 0 1.12.914 2.034 2.035 2.034a2.036 2.036 0 0 0 2.031-2.035c0-.668-.328-1.258-.824-1.629h7.347c-.5.371-.828.961-.828 1.63 0 1.12.914 2.034 2.035 2.034a2.039 2.039 0 0 0 2.036-2.035c0-.668-.329-1.258-.829-1.629h2.454a.406.406 0 1 0 0-.813H4.473V16.68zM1.629 3.66a.815.815 0 0 1-.817-.812.811.811 0 1 1 1.516-.406h-.293a.403.403 0 0 0-.406.406c0 .226.18.406.406.406h.293a.811.811 0 0 1-.7.406zm6.508 18.305a1.221 1.221 0 0 1-1.223-1.219 1.221 1.221 0 0 1 2.441 0 1.22 1.22 0 0 1-1.218 1.219zm9.761 0a1.22 1.22 0 0 1-1.218-1.219 1.22 1.22 0 0 1 1.218-1.219 1.22 1.22 0 0 1 1.22 1.22 1.22 1.22 0 0 1-1.22 1.218zm5.29-15.457v9.355H4.473V6.508zm0 0"/>
    <path d="M7.32 15.05a.41.41 0 0 0 .41-.405v-1.223a.408.408 0 0 0-.816 0v1.223c0 .222.184.406.406.406zm0 0M7.32 9.355c.227 0 .41-.18.41-.406V7.73a.41.41 0 0 0-.41-.41.41.41 0 0 0-.406.41v1.22c0 .226.184.405.406.405zm0 0M7.32 12.203c.227 0 .41-.18.41-.406v-1.219a.41.41 0 0 0-.41-.41.41.41 0 0 0-.406.41v1.219c0 .226.184.406.406.406zm0 0M10.578 15.05a.408.408 0 0 0 .406-.405v-1.223a.408.408 0 0 0-.816 0v1.223a.41.41 0 0 0 .41.406zm0 0M10.578 9.355c.223 0 .406-.18.406-.406V7.73a.41.41 0 0 0-.406-.41.41.41 0 0 0-.41.41v1.22c0 .226.184.405.41.405zm0 0M10.578 12.203c.223 0 .406-.18.406-.406v-1.219a.41.41 0 0 0-.406-.41.41.41 0 0 0-.41.41v1.219c0 .226.184.406.41.406zm0 0M13.832 15.05a.408.408 0 0 0 .406-.405v-1.223a.408.408 0 0 0-.816 0v1.223a.41.41 0 0 0 .41.406zm0 0M13.832 9.355c.223 0 .406-.18.406-.406V7.73a.41.41 0 0 0-.406-.41.41.41 0 0 0-.41.41v1.22c0 .226.183.405.41.405zm0 0M13.832 12.203c.223 0 .406-.18.406-.406v-1.219a.41.41 0 0 0-.406-.41.41.41 0 0 0-.41.41v1.219c0 .226.183.406.41.406zm0 0M17.086 15.05a.408.408 0 0 0 .406-.405v-1.223a.406.406 0 1 0-.813 0v1.223c0 .222.18.406.407.406zm0 0M17.086 9.355c.223 0 .406-.18.406-.406V7.73a.407.407 0 0 0-.813 0v1.22c0 .226.18.405.407.405zm0 0M17.086 12.203c.223 0 .406-.18.406-.406v-1.219a.407.407 0 0 0-.813 0v1.219c0 .226.18.406.407.406zm0 0M20.34 15.05a.408.408 0 0 0 .406-.405v-1.223a.406.406 0 1 0-.813 0v1.223c0 .222.18.406.407.406zm0 0M20.34 9.355c.223 0 .406-.18.406-.406V7.73a.407.407 0 0 0-.813 0v1.22c0 .226.18.405.407.405zm0 0M20.34 12.203c.223 0 .406-.18.406-.406v-1.219a.407.407 0 0 0-.813 0v1.219c0 .226.18.406.407.406zm0 0"/>
</svg>
